tools/lightroom_to_rawtherapee/demo_output/sample_balanced.pp3
# Generated by lr2rt on 2026-04-23T18:37:52Z
[Version]
AppVersion=5.10
Version=350

[General]
Rank=0
ColorLabel=0

[Exposure]
Enabled=true
Exposure=0.350
Contrast=11
Black=-8

[White Balance]
Enabled=true
Setting=Custom
Temperature=6200
Green=1.100

[Shadows & Highlights]
Enabled=true
Highlights=-14
Shadows=18

[Lab Adjustments]
Enabled=true
Brightness=0
Contrast=8
Chromaticity=18
