tools/lightroom_to_rawtherapee/tests/fixtures/sample_preset.xmp
<?xpacket begin='\ufeff' id='W5M0MpCehiHzreSzNTczkc9d'?>
<x:xmpmeta xmlns:x="adobe:ns:meta/">
  <rdf:RDF xmlns:rdf="http://www.w3.org/1999/02/22-rdf-syntax-ns#">
    <rdf:Description
      xmlns:crs="http://ns.adobe.com/camera-raw-settings/1.0/"
      crs:Exposure2012="0.20"
      crs:Contrast2012="8"
      crs:Saturation="4"
      crs:Blacks2012="-4"
      crs:Whites2012="8"
      crs:Highlights2012="-10"
      crs:Shadows2012="12"
      crs:Temperature="5600"
      crs:Tint="5"
      crs:Clarity2012="6"
      crs:Vibrance="10"
      crs:Texture="8"
      crs:Dehaze="6"
      crs:Sharpness="25"
      crs:SharpenRadius="0.8"
      crs:SharpenDetail="30"
      crs:LuminanceSmoothing="10"
      crs:LuminanceNoiseReductionDetail="20"
      crs:ColorNoiseReduction="12"
    />
  </rdf:RDF>
</x:xmpmeta>
<?xpacket end='w'?>
